X:1
T:Away In A Manger
C:J. E. Spilman (tune)
F:http://www.folkinfo.org/songs
M:3/4
L:1/8
K:A
E2|A2A2(cB)|A2A2E2|F2A2F2|E4
w:A-way in a_ man-ger, no crib for a bed
E2|A2A2B2|c2c2e2|e2c2A2|B4
w:The lit-tle Lord Je-sus laid down his sweet head
(E2|A2)A2cB|A2A2E2|F2d2F2|E4
w:The_ stars in the bright sky looked down where he lay
E2|A2A2B2|c2e2d2|E2E2G2|A4
w:The lit-tle Lord Je-sus a-sleep on the hay
(GA)|B2B2e2|B2B2(GA)|B2A2F2|E4
w:The_ cat-tle are low-ing the_ ba-by a-wakes
(GA)|B2B2e2|B2B2G2|(AG) (AB)(c^d)|e4
w:But_ lit-tle Lord Je-sus, no cry_ing_ he_ makes
f2|e2c2(cB)|A2A2E2|F2d2F2|E4
w:I love thee, Lord_ Je-sus; look down from the sky
E2|A2A2B2|c2e2d2|E2E2G2|A4|]
w:And stay by my side un-til morn-ing is nigh
W:Away in a manger, no crib for a bed,
W:The little Lord Jesus laid down his sweet head;
W:The stars in the bright sky looked down where he lay,
W:The little Lord Jesus asleep on the hay.
W:
W:The cattle are lowing the baby awakes,
W:But little Lord Jesus, no crying he makes:
W:I love thee, Lord Jesus; look down from the sky,
W:And stay by my side until morning is nigh.
W:
W:Be near me, Lord Jesus; I ask thee to stay
W:Close by me for ever, and love me, I pray;
W:Bless all the dear children in thy tender care,
W:And fit us for heaven to live with thee there.
